X: 28938
T: Namesake, The
R: jig
M: 6/8
K: Bminor
|:FED E2E|GBA FED|FED E2E|DEF AFD|
FED E2E|GBG FED|EFG FGA|1 ABD BAG:|2 A ~B3 GF||
|:Bed fg/f/e|dfa bfa|gfd eBe|def ABc|
Bed fg/f/e|dfa bfa|bga fge|fed cBA:|

